X:890
T:Tullochgorum
R:Strathspey
B:The Athole Collection
M:C
L:1/8
K:G
d/c/|:B<Gd<G c<=F A>c|B<Gd<G B>c d<g|B<Gd<G c<=F A>c|
B<Gd<G A/B/c BA:|
G>gd>g =f<=F A2|G>gd>g B>gd>g|G>gd>g =f<=F A2|
G>gd>B ~c2 BA|G>gd>g =f<=F A2|G>gd>e =f<c f>g|
A/g/f/e/ =fd c<=FA<a|g>d g/a/b e>gd>g||

